X:1
T:Title
%%score { ( 1 3 ) | ( 2 4 ) }
L:1/8
Q:1/4=117
M:6/4
K:C
V:1 treble nm="Grand Piano"
V:3 treble 
V:2 bass 
V:4 bass 
V:1
 A4 A2 C2 D2 F2 | A4 A2 G4 F2 | [CE_B]4 [DEB]2 [CEA]4 [B,E^G]2 | [FA]12 | A4 A2 C2 D2 F2 | %5
w: Wendell~P.~Loveless * * * *|||||
 [FA]4 [FA]2 [EG]4 [G,CE]2 | [G,B,G]2 [A,B,F]2[K:bass] [G,B,E]2 B,2- [B,E]2[K:treble] [B,F]2 | %7
w: ||
 [_B,G]12[K:bass] | A4 A2 C2 D2 F2 | A4 A2 G4 F2 | [CE_B]4 [DEB]2 [CEA]4 [_B,EG]2 | [Fc]12 | %12
w: |||||
 [Fd]4 d2 f2 [F_e]2 [F^c]2 |[M:13/8] [Fc]- [Fc]3 [CFA]2 [D^Fd]3 [_EFc]2 [DF_B]2 | %14
w: ||
[M:6/4] [B,FA]2 [B,EG]2 [B,DF]2 [_B,EG]2 [B,DF]2 [B,CE]2 | [A,CF]12 |] %16
w: ||
V:2
 [F,CF]4 [F,CF]2 [F,A,]2 [F,A,C]2 [F,A,C]2 | [G,B,F]4 [G,B,F]2[K:bass] [G,B,E]4 [G,B,D]2 | %2
 C,4 C,2 C,4 C,2 | F,12 | [F,A,CF]4 [F,CF]2 [F,A,]2 [F,A,C]2 [F,A,C]2 | [C,C]4 [C,C]2 [C,C]4 C,2 | %6
 G,,2 G,,2 G,,2 z2 G,2 [G,,D,]2 | [C,E,]4 D,2 C,6 | [F,C]4 [F,C]2 [F,A,]2 [F,A,C]2 [F,A,C]2 | %9
 [G,B,F]4 [G,B,F]2[K:bass] [G,B,E]4 [G,B,D]2 | C,4 C,2 C,4 C,2 | [F,A,]4 G,2 A,2 G,2 F,2 | %12
 [_B,,_B,]4[K:treble] [B,F]2 [^G,^CF]2[K:bass] [^C,C]2 [C,G,]2 | %13
[M:13/8] [F,A,]- [F,A,]3 _E,2 D,3 D,2 D,2 |[M:6/4] G,2 G,2 G,2 C,2 C,2 C,2 | F,12 |] %16
V:3
 x12 | x12 | x12 | C4 D2 C6 | x12 | x12 | z6[K:bass] .[F,D]6[K:treble] | z4[K:bass] F,2 E,6 | x12 | %9
 x12 | x12 | z4 _B,2 C2 B,2 A,2 | x12 |[M:13/8] x13 |[M:6/4] x12 | x12 |] %16
V:4
 x12 | x6[K:bass] x6 | x12 | x12 | x12 | x12 | z6 .G,,6 | x12 | x12 | x6[K:bass] x6 | x12 | x12 | %12
 x4[K:treble] x4[K:bass] x4 |[M:13/8] x13 |[M:6/4] x12 | x12 |] %16

